tools/download-figma-icons/icons/outlined-medium/remote.svg

<svg width="24" height="24" viewBox="0 0 24 24" fill="none" xmlns="http://www.w3.org/2000/svg">
<path fill-rule="evenodd" clip-rule="evenodd" d="M23.7253 10.8913L12.4754 1.67018C12.1987 1.44293 11.8019 1.44293 11.5244 1.67018L0.274544 10.8913C-0.0457026 11.1546 -0.0922022 11.6263 0.170295 11.9466C0.431292 12.2661 0.904538 12.3141 1.22553 12.0516L11.9999 3.21966L22.7743 12.0516C22.9138 12.1656 23.0826 12.2211 23.2491 12.2211C23.4666 12.2211 23.6818 12.1273 23.8303 11.9466C24.0921 11.6263 24.0463 11.1546 23.7253 10.8913ZM19.93 11.8867C19.5152 11.8867 19.18 12.222 19.18 12.6367V21.0209H15.0183C14.6035 21.0209 14.2683 21.3562 14.2683 21.7709C14.2683 22.1849 14.6035 22.5209 15.0183 22.5209H19.93C20.3447 22.5209 20.68 22.1849 20.68 21.7709V12.6367C20.68 12.222 20.3447 11.8867 19.93 11.8867ZM10.5241 17.8436C10.5241 17.0284 11.1848 16.3676 12 16.3676C12.8145 16.3676 13.4753 17.0284 13.4753 17.8436C13.4753 18.3828 13.182 18.8501 12.75 19.1073V21.7706C12.75 22.1853 12.4148 22.5206 12 22.5206H4.06963C3.65488 22.5206 3.31964 22.1853 3.31964 21.7706V12.6364C3.31964 12.2224 3.65488 11.8864 4.06963 11.8864C4.48438 11.8864 4.81962 12.2224 4.81962 12.6364V21.0206H11.2501V19.1073C10.8173 18.8508 10.5241 18.3836 10.5241 17.8436ZM8.56729 14.4106C8.27405 14.7038 8.27405 15.1778 8.56729 15.4711C8.86054 15.7643 9.33454 15.7643 9.62778 15.4711C10.9358 14.1631 13.0635 14.1646 14.3715 15.4711C14.5185 15.6173 14.7097 15.6908 14.9017 15.6908C15.0937 15.6908 15.2857 15.6173 15.432 15.4711C15.7252 15.1778 15.7252 14.7038 15.432 14.4106C13.5397 12.5184 10.4595 12.5184 8.56729 14.4106ZM17.6924 13.2109C17.5461 13.3572 17.3541 13.4307 17.1621 13.4307C16.9701 13.4307 16.7781 13.3572 16.6319 13.2109C14.0766 10.6572 9.92168 10.6587 7.36721 13.2109C7.07471 13.5042 6.59997 13.5042 6.30672 13.2109C6.01422 12.9177 6.01422 12.4437 6.30672 12.1504C9.44619 9.01247 14.5529 9.01097 17.6924 12.1504C17.9856 12.4437 17.9856 12.9177 17.6924 13.2109Z" fill="black"/>
</svg>

<svg width="24" height="24" viewBox="0 0 24 24" fill="none" xmlns="http://www.w3.org/2000/svg"><path fill-rule="evenodd" clip-rule="evenodd" d="m23.725 10.891-11.25-9.22a.749.749 0 0 0-.95 0L.274 10.89a.75.75 0 0 0 .95 1.16L12 3.22l10.774 8.832a.75.75 0 0 0 .951-1.16Zm-3.795.996a.75.75 0 0 0-.75.75v8.384h-4.162a.75.75 0 1 0 0 1.5h4.912a.75.75 0 0 0 .75-.75v-9.134a.75.75 0 0 0-.75-.75Zm-9.406 5.957a1.476 1.476 0 1 1 2.951 0 1.47 1.47 0 0 1-.725 1.263v2.664a.75.75 0 0 1-.75.75H4.07a.75.75 0 0 1-.75-.75v-9.135a.75.75 0 1 1 1.5 0v8.385h6.43v-1.914a1.467 1.467 0 0 1-.726-1.263ZM8.567 14.41a.75.75 0 1 0 1.06 1.06 3.36 3.36 0 0 1 4.744 0 .75.75 0 1 0 1.061-1.06 4.86 4.86 0 0 0-6.865 0Zm9.125-1.2a.748.748 0 0 1-1.06 0 6.561 6.561 0 0 0-9.265 0 .75.75 0 1 1-1.06-1.06c3.14-3.139 8.246-3.14 11.385 0a.75.75 0 0 1 0 1.06Z" fill="currentColor"/></svg>
